!!!!SEGMENT: pl-wtm--r-909-m--001_moniuszko-stanislaw--witolorauda.krn
!!!cenid: 18xx:2863
!!!COM: Moniuszko, Stanisław
!!!COM-rismID: pe30008351
!!!CDT: 1819/05/05-1872/06/04
!!!CNT: Polish
!!!GTL: Witolorauda
!!!OTL: 1.
!!!PDT: 1893
!!!AGN:
!!!SMS-siglum: PL-Wtm
!!!SMS-shelfmark: R 909/M
!!!SMS-shelfwork: 001 G
!!!SMS-variant:
!!!SMS-altvar:
!!!NIFC-rismSourceID: 1001099305
!!!NIFC-islandoraID:
!!!URL-pdf-islandora:
!!!URL-scan:
!!!ONB-nifc: UWAGA: numeracja plików 001-005 zgodna z numeracją Raud w źródle
!!!AIN: 1 cello 2 clars 1 cor 2 empty 1 fagot 1 flt 1 oboe 1 tromp 2 tromt 1 viola 2 violn 1 vox
!!!key:
**kern	**kern	**kern	**dynam	**kern	**text	**text	**dynam	**kern	**kern	**kern	**dynam	**kern	**kern	**dynam	**kern	**dynam	**kern	**dynam	**kern	**dynam	**kern	**dynam	**kern	**dynam	**kern	**dynam	**kern	**kern
*part16	*part15	*part14	*part14	*part14	*part14	*part14	*part14	*part13	*part12	*part11	*part11	*part10	*part9	*part9	*part8	*part8	*part7	*part7	*part6	*part6	*part5	*part5	*part4	*part4	*part3	*part3	*part2	*part1
*staff17	*staff16	*staff15	*	*staff14	*staff14	*staff14	*	*staff13	*staff12	*staff11	*	*staff10	*staff9	*	*staff8	*	*staff7	*	*staff6	*	*staff5	*	*staff4	*	*staff3	*	*staff2	*staff1
*Iempty	*Icello	*Ivox	*	*Ivox	*	*	*	*Iviola	*Ivioln	*Ivioln	*	*Iempty	*Itromt	*	*Itromt	*	*Itromp	*	*Icor	*	*Ifagot	*	*Iclars	*	*Iclars	*	*Ioboe	*Iflt
*I"Baſso	*I"Cello	*I"Chór	*	*I"Chór	*	*	*	*I"Viola	*I"Violino II	*I"Violino I	*	*I"Cassa	*I"Trombon 3	*	*I"Tromboni 1/2	*	*I"Trombi 1/2 F	*	*I"Corni 1/2 F	*	*I"Fagotti	*	*I"Clarinetto 2	*	*I"Clarinetto I	*	*I"Oboe	*I"Flauto
*clefF4	*clefF4	*clefF4	*	*clefG2	*	*	*	*clefC3	*clefG2	*clefG2	*	*clefF4	*clefF4	*	*clefF4	*	*clefG2	*	*clefG2	*	*clefF4	*	*clefG2	*	*clefG2	*	*clefG2	*clefG2
*ITrd0c0	*	*	*	*	*	*	*	*	*	*	*	*	*	*	*	*	*ITrd-3c-5	*	*ITrd4c7	*	*	*	*ITrd1c2	*	*ITrd1c2	*	*	*
*>[A,B,B1,B,B2]	*>[A,B,B1,B,B2]	*>[A,B,B1,B,B2]	*	*>[A,B,B1,B,B2]	*	*	*	*>[A,B,B1,B,B2]	*>[A,B,B1,B,B2]	*>[A,B,B1,B,B2]	*	*>[A,B,B1,B,B2]	*>[A,B,B1,B,B2]	*	*>[A,B,B1,B,B2]	*	*>[A,B,B1,B,B2]	*	*>[A,B,B1,B,B2]	*	*>[A,B,B1,B,B2]	*	*>[A,B,B1,B,B2]	*	*>[A,B,B1,B,B2]	*	*>[A,B,B1,B,B2]	*>[A,B,B1,B,B2]
*k[b-e-]	*k[b-e-]	*k[b-e-]	*	*k[b-e-]	*	*	*	*k[b-e-]	*k[b-e-]	*k[b-e-]	*	*k[b-e-]	*k[b-e-]	*	*k[b-e-]	*	*k[b-e-]	*	*k[b-e-]	*	*k[b-e-]	*	*k[b-e-]	*	*k[b-e-]	*	*k[b-e-]	*k[b-e-]
*g:	*g:	*g:	*	*g:	*	*	*	*g:	*g:	*g:	*	*g:	*g:	*	*g:	*	*g:	*	*g:	*	*g:	*	*g:	*	*g:	*	*g:	*g:
*M4/4	*M4/4	*M4/4	*	*M4/4	*	*	*	*M4/4	*M4/4	*M4/4	*	*M4/4	*M4/4	*	*M4/4	*	*M4/4	*	*M4/4	*	*M4/4	*	*M4/4	*	*M4/4	*	*M4/4	*M4/4
*met(c)	*met(c)	*met(c)	*	*met(c)	*	*	*	*met(c)	*met(c)	*met(c)	*	*met(c)	*met(c)	*	*met(c)	*	*met(c)	*	*met(c)	*	*met(c)	*	*met(c)	*	*met(c)	*	*met(c)	*met(c)
*>A	*>A	*>A	*	*>A	*	*	*	*>A	*>A	*>A	*	*>A	*>A	*	*>A	*	*>A	*	*>A	*	*>A	*	*>A	*	*>A	*	*>A	*>A
!	!	!	!	!	!	!	!	!	!	!LO:TX:a:t=TIMP G. D.:color=grey	!	!	!	!LO:DY:b:t=fo:rj	!	!LO:DY:b:t=fo:rj	!	!	!	!	!	!	!	!	!	!	!	!LO:TX:B:a:t=Rauda Isza
!	!	!	!	!	!	!	!	!	!	!LO:TX:a:t=Modto	!	!LO:TX:a:t=P:problem=brak znaków przykluczowych w źródle	!	!	!	!	!LO:TX:a:t=P:problem=brak znaków przykluczowych w źródle	!	!LO:TX:a:t=P:problem=brak znaków przykluczowych w źródle	!	!	!	!LO:TX:a:t=P::problem=znaki przykluczowe w źródle&colon; b-ee-	!	!	!	!	!LO:TX:B:a:t=Modto
!	!LO:TX:a:t=P:problem=akolada (staff 16 i 17)	!	!	!LO:TX:a:t=P:problem=akolada (staff 14 i 15). Na środku akolady słowo "Chór"	!	!	!	!	!LO:DY:b:t=fo:rj	!	!	!	!	!	!	!	!	!	!	!	!	!	!	!	!	!	!	!
16r	16r	16r	.	16r	.	.	.	16r	16r	16r	.	16r	16GG/	f	16G 16D\	f	16r	.	16r	.	16r	.	16r	.	16r	.	16r	16r
!	!	!	!	!	!	!	!	!	!	!LO:CL:ed	!	!	!	!	!	!	!	!	!	!	!	!	!	!	!	!	!	!
=1	=1	=1	=1	=1	=1	=1	=1	=1	=1	=1	=1	=1	=1	=1	=1	=1	=1	=1	=1	=1	=1	=1	=1	=1	=1	=1	=1	=1
*	*	*	*	*	*	*	*	*	*	*clefF4	*	*	*2\right	*	*2\right	*	*	*	*	*	*	*	*	*	*	*	*	*
1ryy	1ryy	1ryy	.	1ryy	.	.	.	1ryy	1ryy	2ri	.	1ryy	2.GG/	.	2.G 2.D\	.	1ryy	.	1ryy	.	1ryy	.	1ryy	.	1ryy	.	1ryy	1ryy
!	!	!	!	!	!	!	!	!	!	!	!LO:HP:a:color=grey	!	!	!	!	!	!	!	!	!	!	!	!	!	!	!	!	!
.	.	.	.	.	.	.	.	.	.	2Di/	< [	.	.	.	.	.	.	.	.	.	.	.	.	.	.	.	.	.
.	.	.	.	.	.	.	.	.	.	.	.	.	8.r	.	8.r	.	.	.	.	.	.	.	.	.	.	.	.	.
.	.	.	.	.	.	.	.	.	.	.	.	.	16GG/	.	16G 16D\	.	.	.	.	.	.	.	.	.	.	.	.	.
=2	=2	=2	=2	=2	=2	=2	=2	=2	=2	=2	=2	=2	=2	=2	=2	=2	=2	=2	=2	=2	=2	=2	=2	=2	=2	=2	=2	=2
1ryy	1ryy	1ryy	.	1ryy	.	.	.	1ryy	1ryy	4GG/i	.	1ryy	2.GG/	.	2.G 2.D\	.	1ryy	.	1ryy	.	1ryy	.	1ryy	.	1ryy	.	1ryy	1ryy
.	.	.	.	.	.	.	.	.	.	4ri	.	.	.	.	.	.	.	.	.	.	.	.	.	.	.	.	.	.
.	.	.	.	.	.	.	.	.	.	2D/i	.	.	.	.	.	.	.	.	.	.	.	.	.	.	.	.	.	.
.	.	.	.	.	.	.	.	.	.	.	.	.	8.r	.	8.r	.	.	.	.	.	.	.	.	.	.	.	.	.
.	.	.	.	.	.	.	.	.	.	.	.	.	16GG/	.	16G 16D\	.	.	.	.	.	.	.	.	.	.	.	.	.
=3!|:	=3!|:	=3!|:	=3!|:	=3!|:	=3!|:	=3!|:	=3!|:	=3!|:	=3!|:	=3!|:	=3!|:	=3!|:	=3!|:	=3!|:	=3!|:	=3!|:	=3!|:	=3!|:	=3!|:	=3!|:	=3!|:	=3!|:	=3!|:	=3!|:	=3!|:	=3!|:	=3!|:	=3!|:
*>B	*>B	*>B	*	*>B	*	*	*	*>B	*>B	*>B	*	*>B	*>B>B	*	*>B	*	*>B	*	*>B	*	*>B	*	*>B	*	*>B	*	*>B	*>B
*	*	*2\right	*	*2\right	*	*	*	*2\right	*2\right	*2\right	*	*2\right	*	*	*	*	*2\right	*	*2\right	*	*2\right	*	*2\right	*	*2\right	*	*2\right	*2\right
!	!	!	!LO:DY:b:rj	!	!	!	!LO:DY:b:rj	!	!	!	!	!	!	!	!	!	!	!	!	!	!	!	!	!	!	!	!	!
1ryy	1ryy	4G\	p	4g/	Czy	Czyś	p	1ryy	1ryy	4GG/i	.	1ryy	4GG/	.	4G 4D\	.	1ryy	.	1ryy	.	4G 4GG\	.	2r	.	2r	.	1ryy	1ryy
.	.	8.B-\	.	8.b-/	ci	mi	.	.	.	4ri	.	.	4r	.	4r	.	.	.	.	.	8.B-L 8.BB-\	.	.	.	.	.	.	.
.	.	16A\	.	16a/	co	się	.	.	.	.	.	.	.	.	.	.	.	.	.	.	16AJk 16AA\	.	.	.	.	.	.	.
.	.	4G\	.	4g/	bra-	bra-	.	.	.	4ri	.	.	2r	.	2r	.	.	.	.	.	4G 4GG\	.	4r	.	4r	.	.	.
.	.	4D\	.	4d/	-kło	-cia	.	.	.	4D/i	.	.	.	.	.	.	.	.	.	.	4D 4DD/	.	4F#X/	.	4A/	.	.	.
=4	=4	=4	=4	=4	=4	=4	=4	=4	=4	=4	=4	=4	=4	=4	=4	=4	=4	=4	=4	=4	=4	=4	=4	=4	=4	=4	=4	=4
1ryy	1ryy	4G\	.	4g/	czy	nie	.	1ryy	1ryy	4GG/i	.	1ryy	1ryy	.	1ryy	.	1ryy	.	1ryy	.	4G 4GG\	.	2.G/	.	2.B-/	.	1ryy	1ryy
.	.	8.B-\	.	8.b-/	ci	dość	.	.	.	4ri	.	.	.	.	.	.	.	.	.	.	8.B-L 8.BB-\	.	.	.	.	.	.	.
.	.	16A\	.	16a/	źle	ko-	.	.	.	.	.	.	.	.	.	.	.	.	.	.	16AJk 16AA\	.	.	.	.	.	.	.
!	!	!	!	!	!	!	!	!	!	!	!LO:HP:a:color=grey	!	!	!	!	!	!	!	!	!	!	!	!	!	!	!	!	!
.	.	4G\	.	4g/	by-	-cha-	.	.	.	2D/i	< [	.	.	.	.	.	.	.	.	.	4G 4GG/	.	.	.	.	.	.	.
.	.	4d 4D\	.	4dd\	-ło?	-li?	.	.	.	.	.	.	.	.	.	.	.	.	.	.	4D 4DD/	.	4F#X/	.	4A/	.	.	.
=5	=5	=5	=5	=5	=5	=5	=5	=5	=5	=5	=5	=5	=5	=5	=5	=5	=5	=5	=5	=5	=5	=5	=5	=5	=5	=5	=5	=5
!	!	!	!LO:DY:b:t=fo:rj	!	!	!	!LO:DY:a:t=fo:rj	!	!	!	!	!	!	!LO:DY:b:t=fo:rj	!	!LO:DY:b:rj	!	!LO:DY:b:t=fo:rj	!	!	!	!	!	!	!	!	!	!
1ryy	1ryy	2B- 2G\	f	2gg 2dd\	Po	Czy	f	1ryy	1ryy	4GG/i	.	1ryy	2GG/	f	2B- 2D\	f	2g 2d/	f	1ryy	.	4GG/	.	2.G/	.	2.B-/	.	1ryy	1ryy
.	.	.	.	.	.	.	.	.	.	4ri	.	.	.	.	.	.	.	.	.	.	4r	.	.	.	.	.	.	.
.	.	4B- 4G\	.	4dd\	coś	żeś	.	.	.	4ri	.	.	4r	.	4r	.	4d/	.	.	.	2r	.	.	.	.	.	.	.
.	.	8.r	.	8.r	.	.	.	.	.	4ryy	.	.	8.r	.	8.r	.	8.r	.	.	.	.	.	4r	.	4r	.	.	.
.	.	16B- 16G\	.	16gg 16dd\	nas	nie-	.	.	.	.	.	.	16GG/	.	16B- 16D\	.	16g 16d/	.	.	.	.	.	.	.	.	.	.	.
!!LO:PB:g=original
=6	=6	=6	=6	=6	=6	=6	=6	=6	=6	=6	=6	=6	=6	=6	=6	=6	=6	=6	=6	=6	=6	=6	=6	=6	=6	=6	=6	=6
*	*	*	*	*	*	*	*	*	*	*	*	*	*	*	*	*	*^	*	*	*	*	*	*	*	*	*	*	*
!	!	!	!LO:HP:a	!	!	!	!LO:HP:a	!	!	!	!	!	!	!	!	!	!	!	!	!	!	!	!	!	!	!	!	!	!
1ryy	1ryy	2B- 2G\	>	2gg 2dd\	bra-	-wier-	>	1ryy	1ryy	4GG/i	.	1ryy	2GG/	.	2B- 2D\	.	2g 2d/	2ryy	.	2r	.	2r	.	1ryy	.	1ryy	.	1ryy	1ryy
.	.	.	.	.	.	.	.	.	.	2.ryy	.	.	.	.	.	.	.	.	.	.	.	.	.	.	.	.	.	.	.
.	.	4B- 4G\	]	4dd\	-cie	-ną	]	.	.	.	.	.	4GG/	.	4B- 4D\	.	4d/	4d\	.	4r	.	4r	.	.	.	.	.	.	.
.	.	8.r	.	8.r	.	.	.	.	.	.	.	.	4r	.	4r	.	8.r	4ryy	.	8.r	.	8.r	.	.	.	.	.	.	.
!	!	!	!LO:DY:a:rj	!	!	!	!LO:DY:b:rj	!	!	!	!	!	!	!	!	!	!LO:TX:a:t=2o	!	!LO:DY:b:rj	!	!LO:DY:b:rj	!	!LO:DY:b:rj	!	!	!	!	!	!
.	.	16B- 16G\	p	16dd 16b-\	po-	miał	p	.	.	.	.	.	.	.	.	.	16d/	.	p	16d 16B-/	p	16GG/	p	.	.	.	.	.	.
*	*	*	*	*	*	*	*	*	*	*	*	*	*	*	*	*	*v	*v	*	*	*	*	*	*	*	*	*	*	*
=7	=7	=7	=7	=7	=7	=7	=7	=7	=7	=7	=7	=7	=7	=7	=7	=7	=7	=7	=7	=7	=7	=7	=7	=7	=7	=7	=7	=7
!	!	!	!LO:HP:a	!	!	!	!LO:HP:a	!	!	!	!	!	!	!LO:DY:b:rj	!	!	!	!	!	!	!	!	!	!	!	!	!	!
1ryy	1ryy	2B- 2G\	>	2dd 2b-\	-rzu-	żo-	>	1ryy	1ryy	4GG/i	.	1ryy	4GG/	p	1ryy	.	2.d/	.	[>2d [<2B-/	.	4GG/	.	8.B-/L	.	8.B-/L	.	1ryy	1ryy
.	.	.	.	.	.	.	.	.	.	.	.	.	.	.	.	.	.	.	.	.	.	.	16A/Jk	.	16c/Jk	.	.	.
!	!	!	!	!	!	!	!	!	!	!LO:TX:t=P:stem.color=grey:problem	!	!	!	!	!	!	!	!	!	!	!	!	!	!	!	!	!	!
.	.	.	.	.	.	.	.	.	.	8.GG/Li	.	.	8.GG/L	.	.	.	.	.	.	.	8.GG/L	.	8.B-/L	.	8.d/L	.	.	.
.	.	.	.	.	.	.	.	.	.	16GG/Jki	.	.	16GG/Jk	.	.	.	.	.	.	.	16GG/Jk	.	16A/Jk	.	16B-/Jk	.	.	.
.	.	4G\	]	4b-\	-cił?	-nę?	]	.	.	4GG/i	.	.	4GG/	.	.	.	.	.	4d] 4B-/]	.	4GG/	.	4G/	.	4d/	.	.	.
.	.	4r	.	4r	.	.	.	.	.	4ri	.	.	4C/	.	.	.	4e/	.	4e 4c/	.	4C 4CC/	.	4c/	.	4eX/	.	.	.
=8	=8	=8	=8	=8	=8	=8	=8	=8	=8	=8	=8	=8	=8	=8	=8	=8	=8	=8	=8	=8	=8	=8	=8	=8	=8	=8	=8	=8
!	!	!	!LO:DY:a:rj	!	!	!	!LO:DY:a:rj	!	!	!	!	!	!	!	!	!	!	!	!	!	!	!	!	!	!	!	!	!
1ryy	1ryy	4F\	p	4f/	Czy	Czy	p	1ryy	1ryy	1ryy	.	1ryy	4FF/	.	1ryy	.	4f/	.	4f 4c/	.	4F 4FF/	.	2.F/	.	2.A-X/	.	1ryy	1ryy
.	.	8.A-X\	.	8.a-X/	gło-	dzie-	.	.	.	.	.	.	4r	.	.	.	4r	.	4r	.	8.A-XL 8.AA-X/	.	.	.	.	.	.	.
.	.	16G\	.	16g/	-dno	-ci	.	.	.	.	.	.	.	.	.	.	.	.	.	.	16GJk 16GG/	.	.	.	.	.	.	.
.	.	4F\	.	4f/	w do-	two-	.	.	.	.	.	.	2r	.	.	.	2r	.	8.r	.	4F 4FF/	.	.	.	.	.	.	.
!	!	!	!	!	!	!	!	!	!	!	!	!	!	!	!	!	!	!	!LO:TX:a:t=à 2e.	!	!	!	!	!	!	!	!	!
.	.	.	.	.	.	.	.	.	.	.	.	.	.	.	.	.	.	.	16c/KL	.	.	.	.	.	.	.	.	.
!	!	!	!	!	!	!	!	!	!	!	!	!	!	!	!	!	!	!	!LO:N:vis=8	!	!	!	!	!	!	!	!	!
.	.	4C\	.	4c/	-mu	-je	.	.	.	.	.	.	.	.	.	.	.	.	8.c/	.	4C 4CC/	.	4EX/	.	4G/	.	.	.
.	.	.	.	.	.	.	.	.	.	.	.	.	.	.	.	.	.	.	16c/Jk	.	.	.	.	.	.	.	.	.
=9	=9	=9	=9	=9	=9	=9	=9	=9	=9	=9	=9	=9	=9	=9	=9	=9	=9	=9	=9	=9	=9	=9	=9	=9	=9	=9	=9	=9
*	*	*	*	*^	*	*	*	*	*	*	*	*	*	*	*	*	*	*	*	*	*	*	*	*	*	*	*	*
*	*	*	*	*	*	*	*	*	*	*	*	*	*	*	*	*	*	*	*	*rep	*	*rep	*	*	*	*	*	*	*
1ryy	1ryy	4F\	.	4f/	2ryy	z na-	cię	.	1ryy	1ryy	1ryy	.	1ryy	1ryy	.	1ryy	.	1ryy	.	4f 4c/	.	4F 4FF/	.	2.F/	.	2.A-X/	.	1ryy	1ryy
.	.	8.A-X\	.	8.a-X/	.	-mi	nie	.	.	.	.	.	.	.	.	.	.	.	.	4r	.	8.A-XL 8.AA-X/	.	.	.	.	.	.	.
.	.	16G\	.	16g/	.	nie	słu-	.	.	.	.	.	.	.	.	.	.	.	.	.	.	16GJk 16GG/	.	.	.	.	.	.	.
.	.	4F\	.	4f/	4ryy	mi-	-cha-	.	.	.	.	.	.	.	.	.	.	.	.	8.r	.	4F 4FF/	.	.	.	.	.	.	.
!	!	!	!	!	!	!	!	!	!	!	!	!	!	!	!	!	!	!	!	!LO:TX:a:t=à 2e.	!	!	!	!	!	!	!	!	!
.	.	.	.	.	.	.	.	.	.	.	.	.	.	.	.	.	.	.	.	16c/KL	.	.	.	.	.	.	.	.	.
!	!	!	!	!	!	!	!	!	!	!	!	!	!	!	!	!	!	!	!	!LO:N:vis=8	!	!	!	!	!	!	!	!	!
.	.	4c 4C\	.	8.cc 8.c/	8.ryy	-ło	-li	.	.	.	.	.	.	.	.	.	.	.	.	8.c/	.	4C 4CC/	.	4EX/	.	4G/	.	.	.
.	.	.	.	16cc/	16cc\	.	żeś	.	.	.	.	.	.	.	.	.	.	.	.	16c/Jk	.	.	.	.	.	.	.	.	.
*	*	*	*	*	*	*	*	*	*	*	*	*	*	*	*	*	*	*	*	*Xrep	*	*Xrep	*	*	*	*	*	*	*
*	*	*	*	*v	*v	*	*	*	*	*	*	*	*	*	*	*	*	*	*	*	*	*	*	*	*	*	*	*	*
=10	=10	=10	=10	=10	=10	=10	=10	=10	=10	=10	=10	=10	=10	=10	=10	=10	=10	=10	=10	=10	=10	=10	=10	=10	=10	=10	=10	=10
*	*	*	*	*	*	*	*	*	*	*	*	*	*	*	*	*	*	*	*2\right	*	*	*	*	*	*	*	*	*
!	!	!	!LO:DY:a:t=fo:rj	!	!	!	!LO:DY:a:t=fo:rj	!	!	!	!	!	!	!	!	!	!	!	!	!	!	!	!	!	!	!	!	!
!	!	!	!LO:HP:a	!	!	!	!LO:HP:a	!	!	!	!	!	!	!LO:DY:b:t=fo:rj	!	!LO:DY:b:t=fo:rj	!LO:TX:a:t=Imo	!LO:DY:b:rj	!	!LO:DY:b:rj	!	!	!	!	!	!	!	!
1ryy	1ryy	2A-X 2F\	f >	2ff 2cc\	Czy-	u-	f >	1ryy	1ryy	1ryy	.	1ryy	2FF/	f	2A-X 2C\	f	2f/	f	2f\	f	2F 2FF/	.	2F/	.	2A-X/	.	1ryy	1ryy
.	.	4A- 4F\	]	4cc\	-li	-ciekł	]	.	.	.	.	.	4FF/	.	4A- 4C\	.	4c/	.	4c/	.	2r	.	2r	.	2r	.	.	.
.	.	8.r	.	8.r	.	.	.	.	.	.	.	.	8.r	.	8.r	.	8.r	.	8.r	.	.	.	.	.	.	.	.	.
.	.	16A- 16F\	.	16ff 16cc\	cię	w da-	.	.	.	.	.	.	16FF/	.	16A- 16C\	.	16f/	.	16f\	.	.	.	.	.	.	.	.	.
=11	=11	=11	=11	=11	=11	=11	=11	=11	=11	=11	=11	=11	=11	=11	=11	=11	=11	=11	=11	=11	=11	=11	=11	=11	=11	=11	=11	=11
!	!	!	!LO:HP:a	!	!	!	!LO:HP:a	!	!	!	!	!	!	!	!	!	!	!	!	!	!	!	!	!	!	!	!	!
1ryy	1ryy	2A-X 2F\	>	2ff 2cc\	z nas	-le-	>	1ryy	1ryy	1ryy	.	1ryy	2FF/	.	2A-X 2C\	.	2f/	.	2f\	.	2r	.	2r	.	2r	.	1ryy	1ryy
.	.	4A- 4F\	]	4cc\	kto	-ką	]	.	.	.	.	.	4FF/	.	4A- 4C\	.	4c/	.	4c\	.	4r	.	4r	.	4r	.	.	.
.	.	8.r	.	8.r	.	.	.	.	.	.	.	.	4r	.	4r	.	4r	.	4r	.	8.r	.	8.r	.	8.r	.	.	.
!	!	!	!LO:DY:a:rj	!	!	!	!LO:DY:b:rj	!	!	!	!	!	!	!	!	!	!	!	!	!	!	!LO:DY:b:rj	!	!LO:DY:b:t=fo:rj	!	!LO:DY:b:t=fo:rj	!	!
.	.	16A- 16F\	p	16cc\	za-	.	p	.	.	.	.	.	.	.	.	.	.	.	.	.	16F 16FF/	p	16A-X/	f	16c/	f	.	.
!!LO:PB:g=original
=12	=12	=12	=12	=12	=12	=12	=12	=12	=12	=12	=12	=12	=12	=12	=12	=12	=12	=12	=12	=12	=12	=12	=12	=12	=12	=12	=12	=12
*	*	*	*	*	*	*	*	*	*	*	*	*	*	*	*	*	*	*	*^	*	*	*	*	*	*	*	*	*
!	!	!	!LO:HP:a	!	!	!	!LO:HP:a	!	!	!	!	!	!	!LO:DY:b:rj	!LO:TX:a:t=Trombon 1/2	!LO:DY:b:rj	!LO:TX:a:t=Trombi.	!	!LO:TX:a:t=1mo	!	!LO:DY:b:rj	!	!	!	!	!	!	!	!
1ryy	1ryy	2A-X 2F\	>	2cc 2a-X\	-smu-	stro-	>	1ryy	1ryy	1ryy	.	1ryy	2.FF/	p	2.A-X 2.C\	p	1ryy	.	2.c/	1re	p	2.F 2.FF/	.	8.A-X/L	.	8.c/L	.	1ryy	1ryy
.	.	.	.	.	.	.	.	.	.	.	.	.	.	.	.	.	.	.	.	.	.	.	.	16G/Jk	.	16B-/Jk	.	.	.
.	.	.	.	.	.	.	.	.	.	.	.	.	.	.	.	.	.	.	.	.	.	.	.	8.F/L	.	8.A-X/L	.	.	.
.	.	.	.	.	.	.	.	.	.	.	.	.	.	.	.	.	.	.	.	.	.	.	.	16G/Jk	.	16B-/Jk	.	.	.
.	.	4A- 4F\	]	4cc 4a-\	-cił	-nę.	]	.	.	.	.	.	.	.	.	.	.	.	.	.	.	.	.	4A-/	.	4c/	.	.	.
.	.	4r	.	4r	.	.	.	.	.	.	.	.	4BB-/	.	4A- 4BB-\	.	.	.	4d/	.	.	4BB-/	.	4B-/	.	4c/	.	.	.
=13	=13	=13	=13	=13	=13	=13	=13	=13	=13	=13	=13	=13	=13	=13	=13	=13	=13	=13	=13	=13	=13	=13	=13	=13	=13	=13	=13	=13	=13
!	!	!	!LO:DY:b:t=fo:rj	!	!	!	!LO:DY:b:t=fo:rj	!	!	!	!	!	!	!	!	!	!	!	!	!	!	!	!	!	!	!	!	!	!
1ryy	1ryy	4G 4E-\	f	4ee- 4g\	Czyś	Po	f	1ryy	1ryy	1ryy	.	1ryy	[>1EE-	.	4G 4E-\	.	1ryy	.	4e-X/	4rc	.	4E- 4EE-/	.	4G/	.	4e-/	.	1ryy	1ryy
.	.	8.B- 8.E-\	.	8.gg 8.b-\	nie	co	.	.	.	.	.	.	.	.	8.B-L 8.E-\	.	.	.	8.g/L	2.B-\	.	4r	.	4r	.	4r	.	.	.
.	.	16A-X 16E-\	.	16ff 16b-\	miał	żeś	.	.	.	.	.	.	.	.	16A-XJk 16E-\	.	.	.	16f/Jk	.	.	.	.	.	.	.	.	.	.
.	.	4.G 4.E-\	.	4.ee- 4.b-\	zwie-	po	.	.	.	.	.	.	.	.	4.G 4.E-\	.	.	.	4.e-/	.	.	2r	.	2r	.	2r	.	.	.
.	.	8B- 8E-\	.	8dd 8b-\	-rzę	co	.	.	.	.	.	.	.	.	8B- 8E-\	.	.	.	8d/	.	.	.	.	.	.	.	.	.	.
=14	=14	=14	=14	=14	=14	=14	=14	=14	=14	=14	=14	=14	=14	=14	=14	=14	=14	=14	=14	=14	=14	=14	=14	=14	=14	=14	=14	=14	=14
*	*	*^	*	*	*	*	*	*	*	*	*	*	*	*	*^	*	*	*	*	*	*	*	*	*	*	*	*	*	*
1ryy	1ryy	4A-X 4E-\	2ryy	.	4cc 4a-X\	bo-	sa-	.	1ryy	1ryy	1ryy	.	1ryy	2.EE-/]	.	4A-X 4E-\	2ryy	.	1ryy	.	4c/	2A-X\	.	1ryy	.	1ryy	.	1ryy	.	1ryy	1ryy
.	.	8.B- 8.E-\	.	.	8.dd 8.b-\	-ga-	-mych	.	.	.	.	.	.	.	.	8.B-L 8.E-\	.	.	.	.	8.d/L	.	.	.	.	.	.	.	.	.	.
.	.	16A- 16E-\	.	.	16b- 16a-\	-tych	zo-	.	.	.	.	.	.	.	.	16A-Jk 16E-\	.	.	.	.	16B-/Jk	.	.	.	.	.	.	.	.	.	.
.	.	4G 4E-\	4ryy	.	4ee- 4g\	la-	-sta-	.	.	.	.	.	.	.	.	4G 4E-\	4ryy	.	.	.	4e-X/	2G\	.	.	.	.	.	.	.	.	.
.	.	4G/	8E-\L	.	4b-\	-sów	-wił	.	.	.	.	.	.	8EE-/L	.	4G/	8E-\L	.	.	.	4B-/	.	.	.	.	.	.	.	.	.	.
.	.	.	8D\J	.	.	.	.	.	.	.	.	.	.	8DD/J	.	.	8D\J	.	.	.	.	.	.	.	.	.	.	.	.	.	.
*	*	*v	*v	*	*	*	*	*	*	*	*	*	*	*	*	*v	*v	*	*	*	*	*	*	*	*	*	*	*	*	*	*
=15	=15	=15	=15	=15	=15	=15	=15	=15	=15	=15	=15	=15	=15	=15	=15	=15	=15	=15	=15	=15	=15	=15	=15	=15	=15	=15	=15	=15	=15
1ryy	1ryy	4G 4C\	.	4ee- 4cc\	Obie	po	.	1ryy	1ryy	1ryy	.	1ryy	1CC	.	4G 4C\	.	1ryy	.	4ree	4c\	.	1ryy	.	1ryy	.	1ryy	.	1ryy	1ryy
.	.	8.G 8.C\	.	8.gg 8.ee-\	miał	coś	.	.	.	.	.	.	.	.	8.GL 8.C\	.	.	.	8.gL 8.e-X\	4ryy	.	.	.	.	.	.	.	.	.
.	.	16G 16C\	.	16ff 16dd\	o-	nas	.	.	.	.	.	.	.	.	16GJk 16C\	.	.	.	16fJk 16d\	.	.	.	.	.	.	.	.	.	.
.	.	4G 4C\	.	4.ee- 4.cc\	-szcze-	bra-	.	.	.	.	.	.	.	.	4G 4C\	.	.	.	4.e-X 4.c\	2ryy	.	.	.	.	.	.	.	.	.
.	.	4C/	.	.	.	.	.	.	.	.	.	.	.	.	4C/	.	.	.	.	.	.	.	.	.	.	.	.	.	.
.	.	.	.	8dd 8b-\	-pu	-cie	.	.	.	.	.	.	.	.	.	.	.	.	8d 8B-/	.	.	.	.	.	.	.	.	.	.
!!LO:PB:g=original
=16	=16	=16	=16	=16	=16	=16	=16	=16	=16	=16	=16	=16	=16	=16	=16	=16	=16	=16	=16	=16	=16	=16	=16	=16	=16	=16	=16	=16	=16
*	*	*	*	*^	*	*	*	*	*	*	*	*	*	*	*^	*	*	*	*	*	*	*	*	*	*	*	*	*	*
!	!	!	!	!	!	!	!	!	!	!	!	!	!	!	!	!LO:TX:a:t=loco:rj	!	!	!LO:TX:a:t=loco	!	!	!	!	!	!	!	!	!	!	!	!
1ryy	1ryy	4F 4FF/	.	8.cc/L	4a-X\	na	po-	.	1ryy	1ryy	1ryy	.	1ryy	4FF/	.	4F/	4F\	.	1ryy	.	2c/	4A-X\	.	2r	.	2r	.	2r	.	1ryy	1ryy
.	.	.	.	16bn/Jk	.	.	.	.	.	.	.	.	.	.	.	.	.	.	.	.	.	.	.	.	.	.	.	.	.	.	.
.	.	4E- 4FF#X/	.	8.cc/L	4an\	ło-	-rzu-	.	.	.	.	.	.	4FF#X/	.	4E-/	4E-\	.	.	.	.	4A\	.	.	.	.	.	.	.	.	.
.	.	.	.	16dd/Jk	.	.	.	.	.	.	.	.	.	.	.	.	.	.	.	.	.	.	.	.	.	.	.	.	.	.	.
.	.	4D 4GG/	.	4b-X/	4g\	-wy	-cił.	.	.	.	.	.	.	4GG/	.	4D/	4D\	.	.	.	4B-/	4B-\	.	8.r	.	8.r	.	8.r	.	.	.
.	.	.	.	.	.	.	.	.	.	.	.	.	.	.	.	.	.	.	.	.	.	.	.	16D/	.	16d/	.	16d/	.	.	.
.	.	4r	.	4r	4ryy	.	.	.	.	.	.	.	.	4r	.	4r	4ryy	.	.	.	4r	4ryy	.	8.BB-/L	.	8.B-/L	.	8.B-/L	.	.	.
.	.	.	.	.	.	.	.	.	.	.	.	.	.	.	.	.	.	.	.	.	.	.	.	16GG/Jk	.	16G/Jk	.	16G/Jk	.	.	.
*	*	*	*	*v	*v	*	*	*	*	*	*	*	*	*	*	*v	*v	*	*	*	*	*	*	*	*	*	*	*	*	*	*
=17	=17	=17	=17	=17	=17	=17	=17	=17	=17	=17	=17	=17	=17	=17	=17	=17	=17	=17	=17	=17	=17	=17	=17	=17	=17	=17	=17	=17	=17
!	!	!	!	!	!	!	!	!	!	!	!	!	!	!	!	!	!	!	!LO:TX:a:t=1mo	!	!	!	!	!	!	!	!	!	!
1ryy	1ryy	4F#X\	.	4dd 4a\	Czyś	Ma-	.	1ryy	1ryy	1ryy	.	1ryy	1ryy	.	4A 4F#X\	.	1ryy	.	4d/	1re	.	4FF#X/	.	2F#X/	.	2A/	.	1ryy	1ryy
.	.	8.F#\	.	8.dd 8.a\	nie	-tce	.	.	.	.	.	.	.	.	8.AL 8.F#\	.	.	.	8.d/L	.	.	4DD/	.	.	.	.	.	.	.
.	.	16F# 16E-\	.	16dd 16a\	miał	i	.	.	.	.	.	.	.	.	16AJk 16F#\	.	.	.	16d/Jk	.	.	.	.	.	.	.	.	.	.
.	.	4G\	.	4.ee- 4.b-\	w two-	żo-	.	.	.	.	.	.	.	.	4.B- 4.G\	.	.	.	4..e-X/	.	.	8.GG/L	.	8.G/L	.	8.G/L	.	.	.
.	.	.	.	.	.	.	.	.	.	.	.	.	.	.	.	.	.	.	.	.	.	16BB-/Jk	.	16B-/Jk	.	16B-/Jk	.	.	.
.	.	4G\	.	.	.	.	.	.	.	.	.	.	.	.	.	.	.	.	.	.	.	8.AA/L	.	8.A/L	.	8.A/L	.	.	.
.	.	.	.	8ee- 8b-\	-jej	-nie	.	.	.	.	.	.	.	.	8B- 8G\	.	.	.	.	.	.	.	.	.	.	.	.	.	.
.	.	.	.	.	.	.	.	.	.	.	.	.	.	.	.	.	.	.	16e-/	.	.	16GG/Jk	.	16G/Jk	.	16G/Jk	.	.	.
*	*	*	*	*	*	*	*	*	*	*	*	*	*	*	*	*	*	*	*v	*v	*	*	*	*	*	*	*	*	*
=18	=18	=18	=18	=18	=18	=18	=18	=18	=18	=18	=18	=18	=18	=18	=18	=18	=18	=18	=18	=18	=18	=18	=18	=18	=18	=18	=18	=18
1ryy	1ryy	4F#X\	.	4dd 4a\	cha-	ser-	.	1ryy	1ryy	1ryy	.	1ryy	1ryy	.	4A 4F#X\	.	1ryy	.	4d 4A/	.	4FF#X/	.	1ryy	.	1ryy	.	1ryy	1ryy
.	.	8.F#\	.	8.dd 8.a\	-cie	-ce	.	.	.	.	.	.	.	.	8.AL 8.F#\	.	.	.	8.dL 8.A/	.	4DD/	.	.	.	.	.	.	.
.	.	16F#\	.	16dd 16a\	za-	za-	.	.	.	.	.	.	.	.	16AJk 16F#\	.	.	.	16dJk 16A/	.	.	.	.	.	.	.	.	.
.	.	4G\	.	4ee- 4b-\	-pa-	-krwa-	.	.	.	.	.	.	.	.	4B- 4G\	.	.	.	4e-X 4B-/	.	4GG/	.	.	.	.	.	.	.
.	.	4A 4F#\	.	4dd 4a\	-sów	-wił	.	.	.	.	.	.	.	.	4A 4F#\	.	.	.	4d 4A/	.	4r	.	.	.	.	.	.	.
=19	=19	=19	=19	=19	=19	=19	=19	=19	=19	=19	=19	=19	=19	=19	=19	=19	=19	=19	=19	=19	=19	=19	=19	=19	=19	=19	=19	=19
*	*	*	*	*	*	*	*	*	*	*	*	*	*	*	*^	*	*	*	*	*	*	*	*	*	*	*	*	*
1ryy	1ryy	4A-X 4Fn\	.	4dd 4bn\	Czyś	Bra-	.	1ryy	1ryy	1ryy	.	1ryy	4Fn\	.	4A-X 4Fn\	2ryy	.	1ryy	.	4d 4BX/	.	1ryy	.	1ryy	.	1ryy	.	1ryy	1ryy
.	.	8G 8En\	.	8cc#X 8a#X\	nie	-ci	.	.	.	.	.	.	4En\	.	4G 4En\	.	.	.	.	4c#X 4B-/	.	.	.	.	.	.	.	.	.
.	.	8G 8E\	.	8cc# 8a#\	miał	i	.	.	.	.	.	.	.	.	.	.	.	.	.	.	.	.	.	.	.	.	.	.	.
.	.	4F#X 4E-X\	.	4cc# 4an\	zło-	sio-	.	.	.	.	.	.	4E-X\	.	4F#X 4E-X\	4ryy	.	.	.	4c 4An/	.	.	.	.	.	.	.	.	.
.	.	8G 8D\	.	8b-X 8g\	-żyć	-strę	.	.	.	.	.	.	4D\	.	4D/	4D\	.	.	.	4B- 4G/	.	.	.	.	.	.	.	.	.
.	.	8D\	.	8b- 8g\	gdzie	za-	.	.	.	.	.	.	.	.	.	.	.	.	.	.	.	.	.	.	.	.	.	.	.
*	*	*	*	*	*	*	*	*	*	*	*	*	*	*	*v	*v	*	*	*	*	*	*	*	*	*	*	*	*	*
!!LO:PB:g=original
=20	=20	=20	=20	=20	=20	=20	=20	=20	=20	=20	=20	=20	=20	=20	=20	=20	=20	=20	=20	=20	=20	=20	=20	=20	=20	=20	=20	=20
!	!	!	!	!	!	!	!LO:DY:a:rj	!	!	!	!	!	!	!	!	!	!	!	!	!	!	!	!	!	!	!	!	!
1ryy	1ryy	(>2C#X 2AA/	.	[>(<2a (>(2e-/	gło-	-smu-	p	1ryy	1ryy	1ryy	.	1ryy	2AA/	.	2C#X 2AA/	.	1ryy	.	2A 2E-/	.	1ryy	.	1ryy	.	1ryy	.	1ryy	1ryy
.	.	4..D\	.	4..a] 4..f#X/)	.	.	.	.	.	.	.	.	4..D/	.	4..D/	.	.	.	4..A 4..F#X/	.	.	.	.	.	.	.	.	.
.	.	16G 16GG/)	.	16g/))	.	.	.	.	.	.	.	.	16GG/	.	16G 16GG\	.	.	.	16G/	.	.	.	.	.	.	.	.	.
=21	=21	=21	=21	=21	=21	=21	=21	=21	=21	=21	=21	=21	=21	=21	=21	=21	=21	=21	=21	=21	=21	=21	=21	=21	=21	=21	=21	=21
!	!	!	!LO:DY:b:rj	!LO:N:vis=2.	!	!	!LO:DY:a:rj	!	!	!	!	!	!	!	!	!	!	!	!	!	!	!	!	!	!	!	!	!
1ryy	1ryy	2G 2GG/	p	2g/	-wy	-cił.	p	1ryy	1ryy	2ryy	.	1ryy	2.GG/	.	2.G 2.GG\	.	1ryy	.	2.G/	.	1ryy	.	1ryy	.	1ryy	.	1ryy	1ryy
.	.	2r	.	2r	.	.	.	.	.	2D/i	.	.	.	.	.	.	.	.	.	.	.	.	.	.	.	.	.	.
.	.	.	.	.	.	.	.	.	.	.	.	.	8.r	.	8.r	.	.	.	4r	.	.	.	.	.	.	.	.	.
.	.	.	.	.	.	.	.	.	.	.	.	.	16GG/	.	16G 16D\	.	.	.	.	.	.	.	.	.	.	.	.	.
=22	=22	=22	=22	=22	=22	=22	=22	=22	=22	=22	=22	=22	=22	=22	=22	=22	=22	=22	=22	=22	=22	=22	=22	=22	=22	=22	=22	=22
*>B1	*>B1	*>B1	*	*>B1	*	*	*	*>B1	*>B1	*>B1	*	*>B1	*>B1	*	*>B1>B1	*	*>B1	*	*>B1	*	*>B1	*	*>B1	*	*>B1	*	*>B1	*>B1
!	!	!	!	!	!	!	!	!	!	!LO:TX:a:t=Imo	!	!	!	!	!	!	!	!	!	!	!	!	!	!	!	!	!	!LO:TX:a:t=Imo
1ryy	1ryy	1ryy	.	1ryy	.	.	.	1ryy	1ryy	4G\i	.	1ryy	2.GG/	.	2.G 2.D\	.	1ryy	.	1ryy	.	1ryy	.	1ryy	.	1ryy	.	1ryy	1ryy
.	.	.	.	.	.	.	.	.	.	4ri	.	.	.	.	.	.	.	.	.	.	.	.	.	.	.	.	.	.
*	*	*	*	*	*	*	*	*	*	*2\left	*	*	*	*	*	*	*	*	*	*	*	*	*	*	*	*	*	*
.	.	.	.	.	.	.	.	.	.	2D\i	.	.	.	.	.	.	.	.	.	.	.	.	.	.	.	.	.	.
.	.	.	.	.	.	.	.	.	.	.	.	.	8.r	.	8.r	.	.	.	.	.	.	.	.	.	.	.	.	.
.	.	.	.	.	.	.	.	.	.	.	.	.	16GG/	.	16G 16D\	.	.	.	.	.	.	.	.	.	.	.	.	.
=23:|!	=23:|!	=23:|!	=23:|!	=23:|!	=23:|!	=23:|!	=23:|!	=23:|!	=23:|!	=23:|!	=23:|!	=23:|!	=23:|!	=23:|!	=23:|!	=23:|!	=23:|!	=23:|!	=23:|!	=23:|!	=23:|!	=23:|!	=23:|!	=23:|!	=23:|!	=23:|!	=23:|!	=23:|!
*>B2	*>B2	*>B2	*	*>B2	*	*	*	*>B2	*>B2	*>B2	*	*>B2	*>B2	*	*>B2	*	*>B2	*	*>B2	*	*>B2	*	*>B2	*	*>B2	*	*>B2	*>B2
*	*	*	*	*	*	*	*	*	*	*^	*	*	*	*	*	*	*	*	*	*	*	*	*	*	*	*	*	*
*	*	*	*	*	*	*	*	*	*	*	*	*	*	*	*	*	*	*	*	*	*	*	*	*	*	*	*	*	*
!	!	!	!	!	!	!	!	!	!	!LO:TX:a:t=2a	!	!	!	!	!	!	!	!	!	!	!	!	!	!	!	!	!	!	!LO:TX:a:t=2a
2r;>	2r;>	2r;>	.	2r;>	.	.	.	2r;>	2.r;>	2.rD;>	4Gi	.	1ryy	2.GG;>/	.	2.G 2.D;>\	.	2r;>	.	2r;>	.	2r;>	.	2r;>	.	2r;>	.	2r;>	2r;>
.	.	.	.	.	.	.	.	.	.	.	2.ryy	.	.	.	.	.	.	.	.	.	.	.	.	.	.	.	.	.	.
4ryy	4ryy	4ryy	.	4ryy	.	.	.	4ryy	.	.	.	.	.	.	.	.	.	4ryy	.	4ryy	.	4ryy	.	4ryy	.	4ryy	.	4ryy	4ryy
4r	4r	4r	.	4r	.	.	.	4r	4r	4r	.	.	.	4r	.	4r	.	4r	.	4r	.	4r	.	4r	.	4r	.	4r	4r
*	*	*	*	*	*	*	*	*	*	*v	*v	*	*	*	*	*	*	*	*	*	*	*	*	*	*	*	*	*	*
==	==	==	==	==	==	==	==	==	==	==	==	==	==	==	==	==	==	==	==	==	==	==	==	==	==	==	==	==
*-	*-	*-	*-	*-	*-	*-	*-	*-	*-	*-	*-	*-	*-	*-	*-	*-	*-	*-	*-	*-	*-	*-	*-	*-	*-	*-	*-	*-
!!!system-decoration: [(s1,s2s3,s4,s5,s6,s7,s8,s9,s10)][(s11,s12,s13,s14,s15,s16,s17)]
!!!RDF**kern: i = marked note, color=grey
!!!RDF**kern: > = above
!!!RDF**kern: < = below
!!!ENC: Marcin Jachim
!!!END: 2021-08-06
!!!ENC: Antoni Szymański
!!!END: 2021-09-09
!!!YEC: Copyright 2022 Narodowy Instytut Fryderyka Chopina (https://polishscores.org)
!!!YEM: Licence CC BY 4.0 (https://creativecommons.org/licenses/by/4.0)
